public/art/walls/brick-b.svg

<svg xmlns="http://www.w3.org/2000/svg" width="32" height="32" shape-rendering="crispEdges" viewBox="0 -0.5 16 16"><path stroke="#99a1a8" d="M0 0h3m1 0h3m4 0h2m1 0h2M0 1h1m14 0h1M0 2h1m14 0h1M0 3h1M0 4h1m14 0h1M0 5h1m14 0h1M0 6h1m0 1h1m13 1h1M1 9h1m13 0h1M0 10h1m14 1h1m-1 1h1M0 13h1m-1 1h1m-1 1h3m10 0h1"/><path stroke="#52636d" d="M3 0h1m5 2h1M3 3h2m3 0h1m1 0h2m1 0h1m-2 1h1M3 7h1M2 8h1m0 1h1m8 0h1m0 1h1M3 11h1m8 0h1M3 13h1m8 0h1m-1 2h1"/><path stroke="#8ea5b2" d="M7 0h2m1 0h1M1 1h2m1 0h5m1 0h2m1 0h2M1 2h2m1 0h5m1 0h5M1 3h2M1 4h2m10 0h2M1 5h2m10 0h2M1 6h2m10 0h2M0 7h1m1 0h1m10 0h3m-3 1h2M0 9h1m1 0h1m10 0h2M1 10h2m-3 1h3m10 0h2M1 12h2m10 0h2M1 13h2m10 0h3M1 14h2m10 0h2m0 1h1"/><path stroke="#697f88" d="M9 0h1m3 0h1M3 1h1m5 0h1m2 0h1M3 2h1m1 1h3m6 0h2M3 4h1M3 5h1m8 0h1M3 6h1m8 0h1m2 0h1m-4 1h1M0 8h2m10 0h1M3 10h1m10 0h2M0 12h1m2 2h1m8 0h1m2 0h1M3 15h1m10 0h1"/><path stroke="#394451" d="M9 3h1m2 0h1M3 8h1m8 2h1M3 12h1m8 0h1"/><path stroke="#000" d="M4 4h8M4 5h8M4 6h8M4 7h8M4 8h8M4 9h8m-8 1h8m-8 1h8m-8 1h8m-8 1h8m-8 1h8m-8 1h8"/></svg>

<svg xmlns="http://www.w3.org/2000/svg" width="32" height="32" viewBox="0 -0.5 16 16" shape-rendering="crispEdges">
<path stroke="#99a1a8" d="M0 0h3M4 0h3M11 0h2M14 0h2M0 1h1M15 1h1M0 2h1M15 2h1M0 3h1M0 4h1M15 4h1M0 5h1M15 5h1M0 6h1M1 7h1M15 8h1M1 9h1M15 9h1M0 10h1M15 11h1M15 12h1M0 13h1M0 14h1M0 15h3M13 15h1" />
<path stroke="#52636d" d="M3 0h1M9 2h1M3 3h2M8 3h1M10 3h2M13 3h1M12 4h1M3 7h1M2 8h1M3 9h1M12 9h1M13 10h1M3 11h1M12 11h1M3 13h1M12 13h1M12 15h1" />
<path stroke="#8ea5b2" d="M7 0h2M10 0h1M1 1h2M4 1h5M10 1h2M13 1h2M1 2h2M4 2h5M10 2h5M1 3h2M1 4h2M13 4h2M1 5h2M13 5h2M1 6h2M13 6h2M0 7h1M2 7h1M13 7h3M13 8h2M0 9h1M2 9h1M13 9h2M1 10h2M0 11h3M13 11h2M1 12h2M13 12h2M1 13h2M13 13h3M1 14h2M13 14h2M15 15h1" />
<path stroke="#697f88" d="M9 0h1M13 0h1M3 1h1M9 1h1M12 1h1M3 2h1M5 3h3M14 3h2M3 4h1M3 5h1M12 5h1M3 6h1M12 6h1M15 6h1M12 7h1M0 8h2M12 8h1M3 10h1M14 10h2M0 12h1M3 14h1M12 14h1M15 14h1M3 15h1M14 15h1" />
<path stroke="#394451" d="M9 3h1M12 3h1M3 8h1M12 10h1M3 12h1M12 12h1" />
<path stroke="#000000" d="M4 4h8M4 5h8M4 6h8M4 7h8M4 8h8M4 9h8M4 10h8M4 11h8M4 12h8M4 13h8M4 14h8M4 15h8" />
</svg>
